icons/snapchat-fill.svg

<svg viewBox="0 0 24 24" fill="currentColor" xmlns="http://www.w3.org/2000/svg"><path d="M11.872 21.7645C10.6817 21.7645 9.88811 21.2027 9.17926 20.7079C8.67548 20.3512 8.20292 20.0124 7.64564 19.9188C7.37369 19.8697 7.09729 19.8519 6.84317 19.8519C6.3706 19.8519 5.99612 19.9232 5.72863 19.9767C5.55922 20.0079 5.41655 20.0347 5.3051 20.0347C5.18919 20.0347 5.04207 20.0035 4.98411 19.8073C4.93507 19.6468 4.90386 19.4953 4.87266 19.3481C4.79241 18.9781 4.72554 18.7507 4.58733 18.7285C3.0983 18.5011 2.20667 18.1578 2.0328 17.7521C2.01942 17.7075 2.00159 17.6629 2.00159 17.6273C1.99267 17.5025 2.08184 17.3999 2.20667 17.3776C3.38808 17.1815 4.44913 16.5529 5.34522 15.5186C6.0407 14.7161 6.37952 13.9404 6.41073 13.8557C6.41073 13.8467 6.41964 13.8467 6.41964 13.8467C6.58906 13.4946 6.62472 13.1959 6.52218 12.9507C6.33048 12.4915 5.69742 12.2953 5.26498 12.1616C5.15352 12.1303 5.0599 12.0947 4.97965 12.0679C4.60962 11.9208 3.9944 11.6087 4.07464 11.1763C4.1326 10.8642 4.54721 10.6413 4.88603 10.6413C4.97965 10.6413 5.0599 10.6547 5.12677 10.6904C5.50572 10.8642 5.849 10.9534 6.14324 10.9534C6.50881 10.9534 6.68268 10.8152 6.72726 10.7706C6.71834 10.5744 6.70497 10.3694 6.69159 10.1777C6.60243 8.81346 6.49989 7.11936 6.93234 6.14747C8.22967 3.24074 10.9848 3.00892 11.8007 3.00892C11.823 3.00892 12.1573 3 12.1573 3C12.1707 3 12.1885 3 12.2064 3C13.0222 3 15.7774 3.22737 17.0747 6.13856C17.5116 7.11044 17.4046 8.80901 17.3154 10.1687L17.3065 10.2356C17.2976 10.4184 17.2842 10.5923 17.2753 10.7706C17.3199 10.8063 17.4804 10.94 17.8103 10.9445C18.0956 10.9356 18.4077 10.8419 18.7643 10.6814C18.8758 10.6324 18.9917 10.6146 19.0764 10.6146C19.2012 10.6146 19.3261 10.6458 19.4331 10.6814H19.442C19.7407 10.7929 19.9368 11.0024 19.9368 11.2209C19.9458 11.426 19.7853 11.738 19.0229 12.0456C18.9427 12.0768 18.849 12.1125 18.7376 12.1393C18.3141 12.2686 17.681 12.4736 17.4804 12.9284C17.3689 13.1691 17.4135 13.4767 17.5829 13.8245C17.5829 13.8334 17.5918 13.8334 17.5918 13.8334C17.6409 13.9582 18.9293 16.8828 21.7959 17.3598C21.9207 17.3821 22.001 17.4846 22.001 17.6094C22.001 17.654 21.9921 17.6986 21.9698 17.7387C21.7959 18.1489 20.9132 18.4833 19.4152 18.7151C19.277 18.7374 19.2102 18.9647 19.1299 19.3348C19.0987 19.4863 19.063 19.6335 19.0185 19.794C18.9739 19.9411 18.8803 20.0213 18.7198 20.0213H18.6975C18.5949 20.0213 18.4567 20.0079 18.2739 19.9723C17.953 19.9054 17.6008 19.8564 17.1594 19.8564C16.8964 19.8564 16.6244 19.8787 16.3569 19.9232C15.8041 20.0124 15.3271 20.3557 14.8233 20.7123C14.1055 21.2027 13.3075 21.7645 12.1261 21.7645C12.1261 21.7645 11.9077 21.7645 11.872 21.7645Z"/></svg>

<svg xmlns="http://www.w3.org/2000/svg" viewBox="0 0 24 24">
    <g>
        <path fill="none" d="M0 0h24v24H0z"/>
        <path d="M11.871 21.764c-1.19 0-1.984-.561-2.693-1.056-.503-.357-.976-.696-1.533-.79a4.568 4.568 0 0 0-.803-.066c-.472 0-.847.071-1.114.125-.17.03-.312.058-.424.058-.116 0-.263-.032-.32-.228-.05-.16-.081-.312-.112-.459-.08-.37-.147-.597-.286-.62-1.489-.227-2.38-.57-2.554-.976-.014-.044-.031-.09-.031-.125-.01-.125.08-.227.205-.25 1.181-.196 2.242-.824 3.138-1.858.696-.803 1.035-1.579 1.066-1.663 0-.01.009-.01.009-.01.17-.351.205-.65.102-.895-.191-.46-.825-.656-1.257-.79-.111-.03-.205-.066-.285-.093-.37-.147-.986-.46-.905-.892.058-.312.472-.535.811-.535.094 0 .174.014.24.05.38.173.723.262 1.017.262.366 0 .54-.138.584-.182a24.93 24.93 0 0 0-.035-.593c-.09-1.365-.192-3.059.24-4.03 1.298-2.907 4.053-3.14 4.869-3.14L12.156 3h.05c.815 0 3.57.227 4.868 3.139.437.971.33 2.67.24 4.03l-.008.067c-.01.182-.023.356-.032.535.045.035.205.169.535.173.286-.008.598-.102.954-.263a.804.804 0 0 1 .312-.066c.125 0 .25.03.357.066h.009c.299.112.495.321.495.54.009.205-.152.517-.914.825-.08.03-.174.067-.285.093-.424.13-1.057.335-1.258.79-.111.24-.066.548.103.895 0 .01.009.01.009.01.049.124 1.337 3.049 4.204 3.526a.246.246 0 0 1 .205.25c0 .044-.009.089-.031.129-.174.41-1.057.744-2.555.976-.138.022-.205.25-.285.62a6.831 6.831 0 0 1-.112.459c-.044.147-.138.227-.298.227h-.023c-.102 0-.24-.013-.423-.049a5.285 5.285 0 0 0-1.115-.116c-.263 0-.535.023-.802.067-.553.09-1.03.433-1.534.79-.717.49-1.515 1.051-2.697 1.051h-.254z"/>
    </g>
</svg>
